images/singapore.svg

<?xml version="1.0" encoding="UTF-8" standalone="no"?>
<svg width="50px" height="46px" viewBox="0 0 50 46" version="1.1" xmlns="http://www.w3.org/2000/svg" xmlns:xlink="http://www.w3.org/1999/xlink">
    <!-- Generator: Sketch 3.8.3 (29802) - http://www.bohemiancoding.com/sketch -->
    <title>Page 1</title>
    <desc>Created with Sketch.</desc>
    <defs></defs>
    <g id="Page-1" stroke="none" stroke-width="1" fill="none" fill-rule="evenodd">
        <g id="Home" transform="translate(-865.000000, -2191.000000)">
            <g id="Group-9" transform="translate(846.000000, 2191.000000)">
                <g id="Group-2">
                    <g id="Page-1" transform="translate(19.000000, 0.000000)">
                        <g id="Group-5" transform="translate(9.814815, 5.884816)" fill="#8F8C8D">
                            <path d="M10.7361806,37.8366688 L3.93206019,37.8366688 C-1.99118056,10.0503483 9.25168981,2.39009921 9.38418981,2.28563022 C9.87247685,1.98194131 10.0270602,1.32840278 9.71053241,0.844930033 C9.39400463,0.339591688 8.74131944,0.188961988 8.23340278,0.521805033 C7.70831019,0.844930033 -4.65590278,9.02509451 2.0230787,39.1170212 C2.12858796,39.6029235 2.56043981,39.943055 3.06835648,39.943055 L10.7361806,39.943055 C11.320162,39.943055 11.801088,39.4790184 11.801088,38.8910766 C11.801088,38.3104235 11.320162,37.8366688 10.7361806,37.8366688" id="Fill-1"></path>
                            <path d="M19.353588,37.8366688 L14.5222454,37.8366688 C5.52206019,17.6790137 12.0685417,7.59168285 12.1347917,7.49693191 C12.4611343,7.01345917 12.3359954,6.35749112 11.8477083,6.03436612 C11.3594213,5.70395259 10.7067361,5.8351462 10.3730324,6.31861894 C10.0663194,6.75593097 2.90641204,17.5745447 12.8635417,39.3259592 C13.0353009,39.7073924 13.4205324,39.943055 13.8327546,39.943055 L19.353588,39.943055 C19.9473843,39.943055 20.4160417,39.4790184 20.4160417,38.8910766 C20.4160417,38.3104235 19.9473843,37.8366688 19.353588,37.8366688" id="Fill-3"></path>
                        </g>
                        <g id="Group-11" fill="#8F8C8D">
                            <path d="M38.1857639,43.721485 L32.6845602,43.721485 C24.587338,31.9262077 24.9112269,19.7786513 24.9112269,19.6450282 C24.9308565,19.0668045 24.4720139,18.5736137 23.8855787,18.5541776 C23.1666435,18.4861513 22.8034954,18.9890602 22.7838657,19.5697133 C22.7642361,20.0993468 22.401088,32.8372744 31.2565046,45.3735526 C31.4577083,45.6578055 31.7840509,45.8181532 32.1300231,45.8181532 L38.1857639,45.8181532 C38.7820139,45.8181532 39.2604861,45.3541165 39.2604861,44.7661748 C39.2506713,44.1952397 38.7721991,43.721485 38.1857639,43.721485" id="Fill-6"></path>
                            <g id="Group-10">
                                <path d="M44.1580787,5.94987312 C44.6365509,5.97902726 45.107662,6.01789944 45.5763194,6.04462406 L45.1444676,6.8512218 C44.7052546,6.69087406 44.3592824,6.37746711 44.1580787,5.94987312 M48.0103935,43.721485 L42.0503472,43.721485 C40.7449769,42.1374436 35.6952546,35.9786325 33.4623843,32.1254276 C32.7140046,30.8329276 31.4209028,27.9296617 30.4050694,25.5754652 L35.1382639,28.9743515 C35.3983565,29.1541353 35.7246991,29.2100141 36.031412,29.1346992 C36.338125,29.0593844 36.5957639,28.8504464 36.7307176,28.5661936 L40.1413657,21.4477256 C40.3155787,21.0881579 40.2002546,20.689718 39.9696065,20.3763111 C39.7487731,20.0629041 39.2899306,19.9001269 38.897338,19.9584352 C36.8460417,20.242688 34.9370602,18.4764333 34.9370602,16.379765 C34.9370602,14.3972838 36.5761343,12.7743703 38.590625,12.7743703 C39.8444676,12.7743703 40.9952546,13.4109023 41.6651157,14.4823167 C41.8761343,14.8054417 42.2319213,14.9755075 42.6146991,14.9755075 C42.9901157,14.9560714 43.3336343,14.7471335 43.5152083,14.4070019 L48.221412,5.58058741 C48.395625,5.26718045 48.3858102,4.88817669 48.2115972,4.57476974 C48.0300231,4.26136278 47.7036806,4.05242481 47.3503472,4.03298872 C32.9642824,3.12192199 27.8065972,2.85710526 25.8411806,2.93242011 L24.901412,0.655968045 C24.7296528,0.238092105 24.3272454,0.0194360902 23.858588,0 C23.6745602,0.00971804511 5.89502315,1.23419173 1.06613426,22.9564521 C-0.199976852,28.6415085 -0.276041667,39.3653712 0.509143519,44.7928994 C0.585208333,45.3152444 1.03668981,45.6966776 1.56423611,45.6966776 L10.5815972,45.6966776 C11.1778472,45.6966776 11.6563194,45.2204934 11.6563194,44.6422697 C11.6563194,44.054328 11.1778472,43.5878618 10.5815972,43.5878618 L2.50400463,43.5878618 C1.821875,37.7133036 2.10895833,28.0730028 3.1444213,23.4132002 C7.121875,5.54171523 19.9571991,2.63844925 23.2353472,2.18170113 L24.1358565,4.38526786 C24.2609954,4.67923872 24.5088194,4.90761278 24.8057176,5.00236372 C24.9995602,5.04852444 25.1909491,5.04852444 25.3725231,5.00965226 C26.4276157,4.90761278 34.7088657,5.38136748 41.9718287,5.82596805 C42.1828472,7.10875 42.9803009,8.18988252 44.1384491,8.72194549 L42.3570602,12.0625235 C41.3215972,11.1708929 39.9990509,10.658266 38.590625,10.658266 C35.3983565,10.658266 32.8096991,13.2286889 32.8096991,16.379765 C32.8096991,19.1809915 34.8413657,21.5060338 37.5159028,21.9992246 L35.3492824,26.5156861 L28.5746065,21.6566635 C28.189375,21.3821288 27.6716435,21.4015648 27.2888657,21.6858177 C26.9257176,21.9797885 26.7809491,22.4826974 26.9625231,22.9200094 C27.0974769,23.2407049 30.1940509,30.7284586 31.6024769,33.167688 C34.2671991,37.7618938 40.4677083,45.1354605 40.7278009,45.4488675 C40.9388194,45.6869596 41.2357176,45.8278712 41.5522454,45.8278712 L48.0103935,45.8278712 C48.5968287,45.8278712 49.0753009,45.3541165 49.0753009,44.7758929 C49.0851157,44.1952397 48.6066435,43.721485 48.0103935,43.721485" id="Fill-8"></path>
                            </g>
                        </g>
                        <path d="M38.5808102,7.05044173 C38.5808102,6.47221805 38.0998843,6.00818139 37.5159028,6.00818139 L28.2286343,6.00818139 C27.8556713,6.00818139 27.5195139,6.17824718 27.328125,6.48193609 C27.1269213,6.79534305 27.1072917,7.1743468 27.2594213,7.4974718 L28.8715046,10.9619549 C29.0040046,11.2559258 29.273912,11.4648637 29.580625,11.5401786 C29.6665046,11.5693327 29.7523843,11.5790508 29.8382639,11.5790508 C30.068912,11.5790508 30.2995602,11.5013064 30.4909491,11.3603947 L32.2453472,10.021734 C32.7041898,9.66216635 32.7900694,9.00619831 32.4367361,8.5518797 C32.0711343,8.07569549 31.411088,8.00038064 30.9399769,8.35023026 L30.2504861,8.87257519 L29.887338,8.11456767 L37.5159028,8.11456767 C38.0998843,8.11456767 38.5808102,7.64081297 38.5808102,7.05044173" id="Fill-12" fill="#8F8D8E"></path>
                    </g>
                </g>
            </g>
        </g>
    </g>
</svg>

<svg width="50" height="46" viewBox="0 0 50 46" xmlns="http://www.w3.org/2000/svg"><title>Page 1</title><g fill="none" fill-rule="evenodd"><g fill="#8F8C8D"><path d="M20.551 43.721h-6.804c-5.923-27.786 5.32-35.446 5.452-35.55.488-.304.643-.958.326-1.441a1.048 1.048 0 0 0-1.477-.323c-.525.323-12.89 8.503-6.21 38.595.105.486.537.826 1.045.826h7.668c.584 0 1.065-.464 1.065-1.052 0-.58-.481-1.055-1.065-1.055"/><path d="M29.168 43.721h-4.83c-9.001-20.157-2.455-30.245-2.388-30.34a1.048 1.048 0 0 0-.287-1.462 1.063 1.063 0 0 0-1.475.284c-.307.438-7.467 11.256 2.49 33.008.172.381.557.617.97.617h5.52c.594 0 1.063-.464 1.063-1.052 0-.58-.469-1.055-1.063-1.055"/></g><g fill="#8F8C8D"><path d="M38.186 43.721h-5.501C24.587 31.926 24.91 19.78 24.91 19.645a1.061 1.061 0 0 0-1.025-1.09c-.72-.069-1.083.434-1.102 1.015-.02.53-.383 13.267 8.473 25.804.2.284.527.444.873.444h6.056c.596 0 1.074-.464 1.074-1.052a1.075 1.075 0 0 0-1.074-1.045"/><path d="M44.158 5.95c.479.029.95.068 1.418.095l-.432.806a1.73 1.73 0 0 1-.986-.901M48.01 43.72h-5.96c-1.305-1.584-6.355-7.742-8.588-11.596-.748-1.292-2.041-4.195-3.057-6.55l4.733 3.4c.26.18.587.235.893.16.307-.076.565-.285.7-.569l3.41-7.118c.175-.36.06-.758-.171-1.072-.221-.313-.68-.476-1.073-.418-2.051.285-3.96-1.482-3.96-3.578 0-1.983 1.64-3.606 3.654-3.606 1.253 0 2.404.637 3.074 1.708.211.323.567.494.95.494a1.08 1.08 0 0 0 .9-.569l4.706-8.826a1.033 1.033 0 0 0-.01-1.006 1.078 1.078 0 0 0-.86-.542c-14.387-.911-19.544-1.176-21.51-1.1l-.94-2.277C24.73.238 24.327.019 23.86 0 23.675.01 5.895 1.234 1.066 22.956-.2 28.642-.276 39.366.51 44.793c.076.522.528.904 1.055.904h9.018c.596 0 1.074-.477 1.074-1.055a1.06 1.06 0 0 0-1.074-1.054H2.504c-.682-5.875-.395-15.515.64-20.175C7.122 5.542 19.957 2.638 23.235 2.182l.9 2.203c.126.294.374.523.67.617.195.047.386.047.568.008 1.055-.102 9.336.371 16.599.816.21 1.283 1.008 2.364 2.166 2.896l-1.78 3.34a5.758 5.758 0 0 0-3.767-1.404c-3.193 0-5.781 2.57-5.781 5.722 0 2.801 2.031 5.126 4.706 5.62l-2.167 4.516-6.774-4.86a1.092 1.092 0 0 0-1.286.03 1.07 1.07 0 0 0-.326 1.234c.134.32 3.231 7.808 4.64 10.248 2.664 4.594 8.865 11.967 9.125 12.28.21.239.508.38.824.38h6.458c.587 0 1.065-.474 1.065-1.052.01-.58-.468-1.055-1.065-1.055"/></g><path d="M38.58 7.05c0-.578-.48-1.042-1.064-1.042h-9.287a1.043 1.043 0 0 0-.97 1.49l1.613 3.464c.132.294.402.503.709.578a.79.79 0 0 0 .257.04c.23 0 .462-.079.653-.22l1.754-1.338c.46-.36.545-1.016.192-1.47a1.07 1.07 0 0 0-1.497-.202l-.69.523-.363-.758h7.629c.584 0 1.065-.474 1.065-1.065" fill="#8F8D8E"/></g></svg>
